scalable/actions/geany-close-all.svg

<?xml version="1.0" encoding="UTF-8" standalone="no"?>
<svg
   xmlns:dc="http://purl.org/dc/elements/1.1/"
   xmlns:cc="http://creativecommons.org/ns#"
   xmlns:rdf="http://www.w3.org/1999/02/22-rdf-syntax-ns#"
   xmlns:svg="http://www.w3.org/2000/svg"
   xmlns="http://www.w3.org/2000/svg"
   xmlns:sodipodi="http://sodipodi.sourceforge.net/DTD/sodipodi-0.dtd"
   xmlns:inkscape="http://www.inkscape.org/namespaces/inkscape"
   viewBox="0 0 24 24"
   version="1.1"
   id="svg4"
   sodipodi:docname="geany-close-all.svg"
   inkscape:version="0.92.3 (2405546, 2018-03-11)"
   width="24"
   height="24"
   style="fill:#000000">
  <metadata
     id="metadata10">
    <rdf:RDF>
      <cc:Work
         rdf:about="">
        <dc:format>image/svg+xml</dc:format>
        <dc:type
           rdf:resource="http://purl.org/dc/dcmitype/StillImage" />
        <dc:title></dc:title>
      </cc:Work>
    </rdf:RDF>
  </metadata>
  <defs
     id="defs8" />
  <sodipodi:namedview
     pagecolor="#ffffff"
     bordercolor="#666666"
     borderopacity="1"
     objecttolerance="10"
     gridtolerance="10"
     guidetolerance="10"
     inkscape:pageopacity="0"
     inkscape:pageshadow="2"
     inkscape:window-width="1366"
     inkscape:window-height="717"
     id="namedview6"
     showgrid="false"
     inkscape:zoom="22.5"
     inkscape:cx="12"
     inkscape:cy="12"
     inkscape:window-x="0"
     inkscape:window-y="25"
     inkscape:window-maximized="1"
     inkscape:current-layer="svg4" />
  <path
     inkscape:connector-curvature="0"
     style="fill:#333333;fill-opacity:1;fill-rule:nonzero;stroke:none;stroke-width:0.62328255;stroke-linecap:round;stroke-linejoin:round;stroke-miterlimit:4;stroke-dasharray:none;stroke-dashoffset:0;stroke-opacity:1"
     d="m 22.234721,0.47973755 c -0.383414,0 -0.768004,0.1488001 -1.06183,0.44262444 L 18.917389,3.177864 16.66424,0.92236199 C 16.370417,0.62853765 15.988225,0.48209187 15.604768,0.48209187 c -0.383457,0 -0.768003,0.14644578 -1.061829,0.44027012 -0.587649,0.58764891 -0.587649,1.53600751 0,2.12365641 l 2.253149,2.2531476 -2.253149,2.2531476 c -0.587649,0.5876489 -0.587649,1.5336535 0,2.1213026 0.587649,0.5876468 1.533655,0.5876468 2.121301,0 l 2.253149,-2.2531482 2.255502,2.2531482 c 0.587649,0.5876468 1.533653,0.5876468 2.121302,0 0.587649,-0.5876491 0.587649,-1.5336537 0,-2.1213026 L 21.041046,5.299166 23.294193,3.0460184 c 0.587649,-0.5876489 0.587649,-1.5360075 0,-2.12365641 C 23.000369,0.62853765 22.618132,0.47973755 22.234721,0.47973755 Z M 3.3101628,4.9106924 C 3.0058138,4.9651837 2.7493373,5.1942401 2.6768329,5.5157695 L 0.2847765,16.129343 c -0.096672,0.428705 0.17166254,0.852144 0.60036851,0.948817 l 1.90705279,0.428499 c -0.1175598,0.335455 -0.011656,0.715553 0.2990071,0.920564 l 7.5175531,4.960692 c 0.366803,0.242059 0.857445,0.143136 1.099501,-0.223667 l 5.991913,-9.080867 c 0.242058,-0.366803 0.140785,-0.857445 -0.226022,-1.0995 L 12.584091,9.7583736 13.014943,7.8466119 C 13.111619,7.417906 12.843281,6.9944667 12.414574,6.8977943 L 3.6256505,4.9177556 C 3.5184742,4.8935875 3.4116124,4.8925291 3.3101628,4.9106924 Z m 9.0243632,5.9495366 3.917698,2.587466 c 0.304448,0.200907 0.386902,0.606704 0.185997,0.911151 l -4.97482,7.536388 c -0.200905,0.304447 -0.606701,0.389257 -0.911147,0.188349 L 4.3131314,17.963409 c -0.060599,-0.03998 -0.1057682,-0.09216 -0.1483266,-0.145972 l 5.506908,1.240761 c 0.4287072,0.09668 0.8521472,-0.169309 0.9488202,-0.598014 z"
     id="rect915" />
</svg>

<svg xmlns="http://www.w3.org/2000/svg" viewBox="0 0 24 24">
  <path fill="#333" d="M22.235.47974c-.38341 0-.768.1488-1.0618.44262l-2.2555 2.2555-2.2531-2.2555c-.29382-.29382-.67602-.44027-1.0595-.44027s-.768.14645-1.0618.44027c-.58765.58765-.58765 1.536 0 2.1237l2.2531 2.2531-2.2531 2.2531c-.58765.58765-.58765 1.5337 0 2.1213.58765.58765 1.5337.58765 2.1213 0l2.2531-2.2531 2.2555 2.2531c.58765.58765 1.5337.58765 2.1213 0 .58765-.58765.58765-1.5337 0-2.1213l-2.2531-2.2531 2.2531-2.2531c.58765-.58765.58765-1.536 0-2.1237-.29382-.29382-.67606-.44262-1.0595-.44262zM3.31 4.91074c-.30435.054491-.56083.28355-.63333.60508l-2.3921 10.614c-.096672.4287.17166.85214.60037.94882l1.9071.4285c-.11756.33546-.011656.71555.29901.92056l7.5176 4.9607c.3668.24206.85744.14314 1.0995-.22367l5.9919-9.0809c.24206-.3668.14078-.85744-.22602-1.0995l-4.8901-3.2255.43085-1.9118c.096676-.42871-.17166-.85215-.60037-.94882l-8.7889-1.98c-.10718-.024168-.21404-.025226-.31549-.0070632zm9.0244 5.9495l3.9177 2.5875c.30445.20091.3869.6067.186.91115l-4.9748 7.5364c-.2009.30445-.6067.38926-.91115.18835l-6.2391-4.1202c-.060599-.03998-.10577-.09216-.14833-.14597l5.5069 1.2408c.42871.09668.85215-.16931.94882-.59801z"/>
</svg>
